X: 86
T: Vidi speciosam sicut columbam
C: Gaspar van Weerbeke
%%abc-version 2.0
%%abcx-abcm2ps-target-version 5.9.1 (29 Sep 2008)
%%abc-creator hum2abc beta
%%abcx-conversion-date 2022/03/06 13:05:57
%%abc-copyright Copyright 2008, Pavanello, Agnese
%%abc-edited-by Mair-Gruber, Roland
%%humdrum-veritas 212736380
%%humdrum-veritas-data 3121928418
%%linebreak <none>
%%barnumbers 0
L: 1/4
M: 3/2
N: Derived from Gas0411-Vidi_speciosam_sicut_columbam.krn
%%staves [1 2 3 4]
V: 1 clef=treble
V: 2 clef=treble-8
V: 3 clef=treble-8
V: 4 clef=bass
K: C
[V:1] z6 | 
[V:2] A4A2 | 
[V:3] z6 | 
[V:4] A,,4A,,2 | 
[V:1] z6 | 
[V:2] A4F2 | 
[V:3] z6 | 
[V:4] D,4D,2 | 
[V:1] z6 | 
[V:2] E4FE | 
[V:3] z6 | 
[V:4] C,4D,2 | 
[V:1] z6 | 
[V:2] A4^G2 | 
[V:3] z6 | 
[V:4] A,,2B,,4 | 
[V:1] A6 | 
[V:2] A4e2 | 
[V:3] z6 | 
[V:4] A,,6 | 
[V:1] A2>G2FE | 
[V:2] f4d2 | 
[V:3] A6 | 
[V:4] D,4D,2 | 
[V:1] E4z2 | 
[V:2] e2c2d2 | 
[V:3] A2>G2FE | 
[V:4] C,2A,,2D,2 | 
[V:1] G4G2 | 
[V:2] B4G2 | 
[V:3] E4G2 | 
[V:4] E,4E,2 | 
[V:1] F2D4 | 
[V:2] z2g4 | 
[V:3] A2B4 | 
[V:4] F,2G,4 | 
[V:1] C4z2 | 
[V:2] e2>f2g2 | 
[V:3] c6 | 
[V:4] C,6 | 
[V:1] G4G2 | 
[V:2] c6 | 
[V:3] e4e2 | 
[V:4] C,4C,2 | 
[V:1] A2B4 | 
[V:2] z6 | 
[V:3] c2d4 | 
[V:4] C,2G,4 | 
[V:1] c4z2 | 
[V:2] g6 | 
[V:3] c6 | 
[V:4] C,6 | 
[V:1] G2AB2c | 
[V:2] c2z2g2 | 
[V:3] e4e2 | 
[V:4] z6 | 
[V:1] d2cB2A | 
[V:2] g2fg2c | 
[V:3] d2Ad2c | 
[V:4] G,2A,G,2A, | 
[V:1] A4^G2 | 
[V:2] d2e4 | 
[V:3] A2B4 | 
[V:4] F,2E,4 | 
[V:1] A6 | 
[V:2] c4z2 | 
[V:3] A4z2 | 
[V:4] F,4D,2 | 
[V:1] z6 | 
[V:2] e4d2 | 
[V:3] c4B2 | 
[V:4] C,4z2 | 
[V:1] c4B2 | 
[V:2] e2>f2g2 | 
[V:3] c4G2 | 
[V:4] z6 | 
[V:1] c2>B2A2 | 
[V:2] c4d2 | 
[V:3] A2F4 | 
[V:4] F,2>G,2A,2 | 
[V:1] G2A2F2- | 
[V:2] e4d2- | 
[V:3] E2C2D2- | 
[V:4] B,2C2A,2- | 
[V:1] F2E4 | 
[V:2] d2B4 | 
[V:3] D2E4 | 
[V:4] A,2G,4 | 
[V:1] E2E2E2 | 
[V:2] c2c2c2 | 
[V:3] z6 | 
[V:4] C,2C,2C,2 | 
[V:1] D4E2 | 
[V:2] B4c2 | 
[V:3] z6 | 
[V:4] G,4E,2 | 
[V:1] F4F2 | 
[V:2] d4d2 | 
[V:3] A2A2A2 | 
[V:4] D,4D,2 | 
[V:1] G4z2 | 
[V:2] B2>c2d2 | 
[V:3] G4A2 | 
[V:4] E,4F,2 | 
[V:1] G4G2 | 
[V:2] e4d2 | 
[V:3] B4B2 | 
[V:4] E,4G,2 | 
[V:1] E4F2 | 
[V:2] c4z2 | 
[V:3] c4A2 | 
[V:4] C,4D,2 | 
[V:1] G2>E2FG | 
[V:2] e2e2c2 | 
[V:3] B2c2A2 | 
[V:4] E,2C,2F,2 | 
[V:1] E4D2 | 
[V:2] c2A4 | 
[V:3] G2F4 | 
[V:4] C,2D,4 | 
[V:1] E6 | 
[V:2] A4z2 | 
[V:3] E4z2 | 
[V:4] A,,4z2 | 
[V:1] z6 | 
[V:2] z6 | 
[V:3] E2E2E2 | 
[V:4] C,2C,2C,2 | 
[V:1] z6 | 
[V:2] z6 | 
[V:3] G4A2 | 
[V:4] E,4F,2 | 
[V:1] z6 | 
[V:2] z6 | 
[V:3] c4B2 | 
[V:4] E,2D,4 | 
[V:1] E2E2E2 | 
[V:2] G2G2G2 | 
[V:3] c6 | 
[V:4] C,6 | 
[V:1] G4A2 | 
[V:2] G2g2f2 | 
[V:3] c6- | 
[V:4] E,2C,2F,2 | 
[V:1] c4B2 | 
[V:2] e2g4 | 
[V:3] c2d4 | 
[V:4] A,2G,4 | 
[V:1] c4z2 | 
[V:2] e6 | 
[V:3] c6 | 
[V:4] C,4z2 | 
[V:1] c4B2 | 
[V:2] c2>d2e2 | 
[V:3] z6 | 
[V:4] F,4G,2 | 
[V:1] A4G2 | 
[V:2] f4d2 | 
[V:3] c4B2 | 
[V:4] F,4G,2 | 
[V:1] c4B2 | 
[V:2] c2f2d2 | 
[V:3] A4G2 | 
[V:4] A,2F,2G,2 | 
[V:1] A4G2 | 
[V:2] c2f2d2 | 
[V:3] c4B2 | 
[V:4] A,2F,2G,2 | 
[V:1] E2F3G | 
[V:2] e2d4 | 
[V:3] c2A2B2 | 
[V:4] C,2D,4 | 
[V:1] E2A3G | 
[V:2] g2f3e | 
[V:3] c4d2 | 
[V:4] C,2F,4 | 
[V:1] G4^F2 | 
[V:2] d6 | 
[V:3] B2A4 | 
[V:4] G,2D,4 | 
[V:1] G6 | 
[V:2] B4z2 | 
[V:3] G4E2 | 
[V:4] E,4C,2 | 
[V:1] z6 | 
[V:2] d2d2d2 | 
[V:3] G2>F2D2 | 
[V:4] B,2B,2B,2 | 
[V:1] z2z2E2 | 
[V:2] e2>d2cB/A/ | 
[V:3] C4z2 | 
[V:4] C4C,2 | 
[V:1] G2>F2D2 | 
[V:2] G4g2 | 
[V:3] c4d2 | 
[V:4] E,2C,2G,2 | 
[V:1] C4c2 | 
[V:2] g4g2 | 
[V:3] e4e2 | 
[V:4] C,2>D,2E,F, | 
[V:1] B2c3B | 
[V:2] g2e2f2 | 
[V:3] d2e2c2 | 
[V:4] G,2C,2F,2- | 
[V:1] A2G4 | 
[V:2] d2e3f/g/ | 
[V:3] d2B4 | 
[V:4] F,2E,4 | 
[V:1] c2B3A | 
[V:2] a2g3e | 
[V:3] A2d4 | 
[V:4] F,2G,4 | 
[V:1] A4^G2 | 
[V:2] e4e2 | 
[V:3] c2B4 | 
[V:4] A,2E,4 | 
[V:1] A6 |]  
[V:2] e6 |]  
[V:3] A6 |]  
[V:4] A,,6 |]  


